!!!!SEGMENT: pl-wnifc--13846--005_anonim--piesni-polskie-i-ruskie-ludu-galicyjskiego-5-a-my-panny-nie-mamy.krn
!!!kernsource:
!!!cenid: 18xx:3227
!!!COM: Anonim
!!!COM-rismid: pe30004985
!!!CDT:
!!!CNT:
!!!GTL: Pieśni polskie i ruskie ludu galicyjskiego
!!!OTL: 5. A my panny nie mamy
!!!PDT: 1833
!!!AGN:
!!!SMS-siglum: PL-Wnifc
!!!SMS-shelfmark: 13846
!!!SMS-shelfwork: 005 G
!!!NIFC-rismid:
!!!URL-scan: http://repozytorium.nifc.pl/skany/pl-wnifc-nut--13846
!!!ONB-nifc:
!!!AIN: 1 piano 1 vox
!!!key: D
**kern	**kern	**dynam	**kern	**text
*part2	*part2	*part2	*part1	*part1
*staff3	*staff2	*	*staff1	*staff1
*I"FORTEPIAN.	*I"FORTEPIAN.	*	*I"GŁOS.	*
*Ipiano	*Ipiano	*	*Ivox	*
*ICklav	*ICklav	*	*ICvox	*
*IGacmp	*IGacmp	*	*IGsolo	*
*clefF4	*clefG2	*	*clefG2	*
*k[f#c#]	*k[f#c#]	*	*k[f#c#]	*
*D:	*D:	*	*D:	*
*M2/4	*M2/4	*	*M2/4	*
=1	=1	=1	=1	=1
*tremolo	*	*	*	*
!	!	!	!LO:TX:b:t=⍉	!
8DD/L	8ff#\L 8dd\	.	8ff#\	A
8D/	8aa\J 8ff#\	.	8aa\	my
8DD/	8aa\L 8ff#'\	.	8aa\	pan-
8D/J	(16gg\L 16ee\	.	(16gg\LL	-ny
.	16ff#\JJ 16dd\)	.	16ff#\JJ)	.
=2	=2	=2	=2	=2
8DD/L	4aa\ 4ff#\	.	4aa\	nie
8D/	.	.	.	.
8DD/	8ff#\L 8dd\	.	8ff#\	ma-
8D/J	8dd\J	.	8dd\	-my
*Xtremolo	*	*	*	*
!!LO:LB:g=original
=3	=3	=3	=3	=3
8DD/L	8ff#\L 8dd\	.	8ff#\	na
8D/	8aa\J 8ff#\	.	8aa\	chłop-
8DD/	8aa\L 8ff#\	.	8aa\	-ski
8D/J	(16gg\L 16ee\	.	(16gg\LL	chléb
.	16ff#\JJ 16dd\)	.	16ff#\JJ)	.
=4	=4	=4	=4	=4
*tremolo	*	*	*	*
8DD/L	4aa\ 4ff#\	.	4aa\	nie
8D/	.	.	.	.
8DD/	8ff#\L 8dd\	.	8ff#\	da-
8D/J	8dd\J	.	8dd\	-my
*Xtremolo	*	*	*	*
=5	=5	=5	=5	=5
*^	*	*	*	*
8D\L	4ryy	4ff#^<\ 4dd\	.	4ff#\	idź
8A\	.	.	.	.	.
8AA\	4AA/	4gg^<\ 4ee\	.	4gg\	precz
8A\J	.	.	.	.	.
*v	*v	*	*	*	*
=6	=6	=6	=6	=6
8D\L	8.ff#\L 8.dd\	.	(8.ff#\L	Zel-
8A\	.	.	.	.
.	16ee\Jk 16cc#\	.	16ee\Jk)	.
8D\	4dd\	.	4dd\	-man,
8A\J	.	.	.	.
!!LO:PB:g=original
=7	=7	=7	=7	=7
8D/L	4ff#\ 4dd\	.	4ff#\	idź
8A/	.	.	.	.
8AA/	4gg\ 4ee\	.	4gg\	precz
8A/J	.	.	.	.
=8	=8	=8	=8	=8
8D/L	8ff#\L 8dd\	.	8ff#\	je-
8A/	8ee\J 8cc#\	.	8ee\	-go
8D/	4dd\	.	4dd\	brat
8A/J	.	.	.	.
=9	=9	=9	=9	=9
8AA/L	4ee\ 4cc#\	.	4ee\	idź
8A/	.	.	.	.
8D/	8.ff#\L 8.dd\	.	(8.ff#\L	precz
8A/J	.	.	.	.
.	16dd\Jk 16f#\	.	16dd\Jk)	.
!!LO:LB:g=original
=10	=10	=10	=10	=10
8AA/L	8ee\L 8cc#\	.	8ee\	Zel-
8A/	8ee\J 8cc#\	.	8ee\	-ma-
8D/	8ff#\L 8dd\	.	8ff#\	-no-
8A/J	8dd\J	.	8dd\	-wa
=11	=11	=11	=11	=11
8D/L	4ff#\ 4dd\	.	4ff#\	wszy-
8A/	.	.	.	.
8AA/	4gg\ 4ee\	.	4gg\	-stka
8A/J	.	.	.	.
=12	=12	=12	=12	=12
8D/L	8ff#\L 8dd\	.	8ff#\	ro-
8A/	8ee\J 8cc#\	.	8ee\	-dzi-
8D/	4dd\	.	4dd\	-na
!LO:TX:b:i:t=Od znaku ⍉ zacząwszy, aż do końca melodyi, śpiéwają się w pieśni \nZelman tylko te strofy, które się z sześciu wiérszów, składają.	!	!	!	!
8A/J	.	.	.	.
==	==	==	==	==
*-	*-	*-	*-	*-
!!!system-decoration: <s1>{(s2,s3)}
!!!RDF**kern: > = above
!!!RDF**kern: < = below
!!!ENC: Andrzej Kubiczek
!!!END: 2021-11-09
